svgs/light/folder-user.svg

<svg xmlns="http://www.w3.org/2000/svg" viewBox="0 0 512 512"><!-- Font Awesome Pro 6.0.0-alpha2 by @fontawesome - https://fontawesome.com License - https://fontawesome.com/license (Commercial License) --><path d="M448 96H272L226.746 50.746C214.742 38.742 198.465 32 181.49 32H64C28.654 32 0 60.654 0 96V416C0 451.346 28.654 480 64 480H448C483.346 480 512 451.346 512 416V160C512 124.654 483.346 96 448 96ZM480 416C480 433.645 465.645 448 448 448H64C46.355 448 32 433.645 32 416V96C32 78.355 46.355 64 64 64H181.49C190.039 64 198.074 67.328 204.117 73.375L249.373 118.627L258.746 128H448C465.645 128 480 142.355 480 160V416ZM256 288C291.346 288 320 259.346 320 224S291.346 160 256 160S192 188.654 192 224S220.654 288 256 288ZM256 192C273.645 192 288 206.355 288 224S273.645 256 256 256S224 241.645 224 224S238.355 192 256 192ZM288 320H224C179.816 320 144 355.816 144 400C144 408.836 151.164 416 160 416S176 408.836 176 400C176 373.49 197.49 352 224 352H288C314.51 352 336 373.49 336 400C336 408.836 343.164 416 352 416S368 408.836 368 400C368 355.816 332.184 320 288 320Z"/></svg>

<svg xmlns="http://www.w3.org/2000/svg" viewBox="0 0 512 512"><!--! Font Awesome Pro 6.3.0 by @fontawesome - https://fontawesome.com License - https://fontawesome.com/license (Commercial License) Copyright 2023 Fonticons, Inc. --><path d="M448 96h-176L226.7 50.75C214.7 38.74 198.5 32 181.5 32H64C28.65 32 0 60.65 0 96v320c0 35.35 28.65 64 64 64h384c35.35 0 64-28.65 64-64V160C512 124.7 483.3 96 448 96zM480 416c0 17.64-14.36 32-32 32H64c-17.64 0-32-14.36-32-32V96c0-17.64 14.36-32 32-32h117.5c8.549 0 16.58 3.328 22.63 9.375L258.7 128H448c17.64 0 32 14.36 32 32V416zM256 288c35.35 0 64-28.65 64-64s-28.65-64-64-64S192 188.7 192 224S220.7 288 256 288zM256 192c17.64 0 32 14.36 32 32s-14.36 32-32 32S224 241.6 224 224S238.4 192 256 192zM288 320H224c-44.18 0-80 35.82-80 80C144 408.8 151.2 416 160 416s16-7.164 16-16C176 373.5 197.5 352 224 352h64c26.51 0 48 21.49 48 48c0 8.836 7.164 16 16 16s16-7.164 16-16C368 355.8 332.2 320 288 320z"/></svg>
